packages/design-assets/icons/16px/Basics.svg

<?xml version="1.0" encoding="UTF-8"?>
<svg width="16px" height="16px" viewBox="0 0 16 16" version="1.1" xmlns="http://www.w3.org/2000/svg" xmlns:xlink="http://www.w3.org/1999/xlink">
    <!-- Generator: Sketch 54.1 (76490) - https://sketchapp.com -->
    <title>Icons/16px/Basics</title>
    <desc>Created with Sketch.</desc>
    <g id="Icons/16px/Basics" stroke="none" stroke-width="1" fill="none" fill-rule="evenodd">
        <path d="M11,4 L1,4.019 C0.448,4.019 0,3.571 0,3.019 C0,2.467 0.448,2.019 1,2.019 L11,2 L11,4 Z M15,9 L5,9 L5,7 L15,7 C15.552,7 16,7.448 16,8 C16,8.552 15.552,9 15,9 Z M15,4.019 L13,4 L13,2 L15,2.019 C15.552,2.019 16,2.467 16,3.019 C16,3.572 15.552,4.019 15,4.019 Z M11,14 L1,14 C0.448,14 0,13.552 0,13 C0,12.448 0.448,12 1,12 L11,12 L11,14 Z M15,14 L13,14 L13,12 L15,12 C15.552,12 16,12.448 16,13 C16,13.552 15.552,14 15,14 Z M3,9 L1,9 C0.448,9 0,8.552 0,8 C0,7.448 0.448,7 1,7 L3,7 L3,9 Z" id="Shape" fill="#818F99"></path>
    </g>
</svg>

<svg width="16" height="16" xmlns="http://www.w3.org/2000/svg"><path d="M11 4L1 4.019a1 1 0 0 1 0-2L11 2v2zm4 5H5V7h10a1 1 0 0 1 0 2zm0-4.981L13 4V2l2 .019a1 1 0 0 1 0 2zM11 14H1a1 1 0 0 1 0-2h10v2zm4 0h-2v-2h2a1 1 0 0 1 0 2zM3 9H1a1 1 0 0 1 0-2h2v2z" fill="#818F99" fill-rule="evenodd"/></svg>
